X: 4
T: Polska efter Jonas Andersson
R: Polska
S: efter Jonas Andersson
O: Järvsö, Hälsingland
N: Jonas Andersson (1873-1965), Nordsjö, Järvsö, Nordsjö, Järvsö s:n
B: http://www.smus.se/earkiv/fmk/browselarge.php?lang=sw&katalogid=Hs+17&bildnr=00004
Z: Håkan Lidén, 2009-01-05
M: 3/4
L: 1/8
K: Gm
gd BG B/A/G/^F/ | GG/A/ B/A/G/^F/ GA | BA/B/ d/c/B/A/ Bd | 
c/B/A/B/ c2 B2 :: ff/d/ BB/F/ BB/d/ | cc/e/ AA/c/ BA | dB AG ^FG | 
Gg ^f/g/a/f/ gd | dB AG ^FG | B/A/G/^F/ G2 G,2 :|]

